public/logo.svg

<svg fill="none" height="363" viewBox="0 0 1076 363" width="1076" xmlns="http://www.w3.org/2000/svg"><path d="m1000.83 229.155c21.41-.569 45.83-20.752 55.59-37.165l13.52 13.161c-11.64 19.841-39.06 42.359-73.613 43.282-31.118.532-51.019-14.977-57.83-36.878-18.526 25.594-43.554 41.435-73.627 55.411-19.906 55.369-39.434 87.439-72.487 88.322-16.527.441-31.175-10.811-31.175-27.335 0-27.794 32.302-57.576 87.887-71.082 2.629-7.205 4.883-14.776 7.512-22.36.789-2.439 1.597-4.924 2.417-7.44-13.328 15.049-28.825 25.8-43.736 26.198-25.847.692-34.214-16.461-33.078-42.421-30.088 44.969-77.054 45.363-93.499 45.801-19.907.532-44.693-4.063-57.464-17.243-10.517 29.2-24.038 72.378-37.184 117.425l-21.782.582c13.888-41.088 27.779-83.621 41.57-125.988-16.865 16.823-39.786 28.288-68.619 29.058-31.084.533-50.975-14.942-57.808-36.802-17.312 22.868-43.582 39.51-78.535 40.446-25.181.673-45.942-13.24-52.997-37.814-17.303 23.334-43.805 40.399-79.214 41.344-39.06.67-60.469-23.922-60.469-54.721 0-50.703 31.926-95.875 73.239-96.98 27.794-.742 39.814 19.969 39.814 37.622 0 42.064-42.819 69.502-92.019 60.3 1.878 20.229 14.273 35.297 43.942 34.505 28.858-.77 53.025-19.109 72.184-44.562 1.365-47.238 32.727-90.823 71.295-91.853 32.302-.864 49.201 30.236 38.311 62.825l-20.658.554c8.263-26.514-2.253-44.261-19.907-43.788-26.667.713-48.073 37.716-48.073 73.023 0 27.415 17.274 40.852 39.059 40.27 28.496-.764 52.412-18.651 71.455-43.607 1.828-48.84 33.068-91.393 73.151-92.463 27.794-.742 39.814 19.969 39.814 37.622 0 42.064-42.819 69.499-92.019 60.297 1.878 20.232 14.273 35.3 43.942 34.508 31.96-.855 58.165-23.256 78.187-53.01 8.68-26.62 17.306-52.959 25.857-78.597l20.28-.542-13.895 34.549c7.509-13.719 28.918-38.33 56.337-39.062 22.533-.601 37.182 18.536 37.182 46.706 0 33.052-25.538 72.794-46.572 87.627 22.668.103 59.354-20.551 81.102-65.263 3.843-15.685 9.171-32.571 15.055-49.605l-22.536.604 6.385-18.576 22.536-.601c7.134-20.0979 14.646-39.8294 20.655-57.2666l21.034-.5603c-7.888 20.4921-15.024 39.8387-21.034 57.2759l35.307-.945-6.386 18.573-35.682.955c-23.659 70.115-30.42 110.858-6.385 110.217 15.068-.401 36.953-21.716 56.672-51.414 8.113-24.201 17.187-50.781 27.09-79.273l20.279-.542c-18.401 54.575-34.176 99.691-46.195 135.692l-2.254 6.069c27.353-14.673 47.025-31.851 63.163-53.636 1.281-49.419 32.715-92.7729 73.179-93.8528 27.79-.7449 39.81 19.9658 39.81 37.6198 0 38.686-43.19 68.384-92.018 59.924 1.503 20.241 14.273 35.675 43.938 34.88zm-220.091 96.022c0 7.888 6.761 11.838 14.649 11.628 17.653-.473 32.674-24.912 46.946-61.723-34.176 11.052-61.595 31.691-61.595 50.095zm-472.511-169.533c0-10.517-6.761-20.855-19.531-20.514-25.541.682-45.82 29.394-50.327 60.688 33.425 8.873 69.858-9.753 69.858-40.174zm268.554-7.177c0-10.517-6.761-20.852-19.531-20.511-25.541.682-45.82 29.394-50.327 60.688 33.425 8.873 69.858-9.753 69.858-40.177zm155.874 3.725c0-16.527-7.888-28.336-21.785-28.339-21.785-.169-51.078 27.281-72.487 95.455 6.385 11.475 16.15 19.1 36.054 18.567 25.165-.669 58.218-45.497 58.218-85.683zm295.224-15.776c0-10.516-6.76-20.852-19.53-20.51-25.544.682-45.448 29.005-50.331 60.312 33.425 8.119 69.861-12.761 69.861-39.802zm-108.551-60.95c-7.512.2003-12.019-4.936-12.019-11.6968 0-11.268 9.014-20.5234 18.029-20.7644 6.761-.1784 12.019 4.5635 12.019 11.6968 0 10.5168-9.014 20.5234-18.029 20.7644zm-803.408 137.144c11.64 29.363 24.786 58.681 38.308 87.991l-24.414.654c-12.395-28.214-23.66-56.084-34.5521-84.335-11.6436 1.437-24.0384 1.769-36.4332.598-9.7656 28.805-19.5281 57.611-28.9181 86.404l-22.9116.613c26.292-75.821 51.4541-151.608 78.1217-227.4383l21.7843-.5821c-14.2723 40.1924-27.7939 80.7414-41.3155 120.9154 71.3605 5.605 133.3315-40.744 133.3315-106.4736 0-44.3177-34.927-67.799-74.741-66.7348-30.0449.8044-61.5953 13.6656-83.0045 27.7569l-9.3869-17.7753c23.2841-14.5201 57.0881-28.19193 93.1424-29.15597 54.838-1.46484 95.775 31.24367 95.775 84.20017 0 59.3446-45.444 107.5066-104.786 123.3626z" style="fill-rule:evenodd;clip-rule:evenodd;fill:#302e2d;stroke:#302e2d;stroke-width:9.39;stroke-linecap:round"/></svg>

<svg width="1076" height="363" viewBox="0 0 1076 363" fill="none" xmlns="http://www.w3.org/2000/svg">
  <path fill-rule="evenodd" clip-rule="evenodd" d="M1000.83 229.155C1022.24 228.586 1046.66 208.403 1056.42 191.99L1069.94 205.151C1058.3 224.992 1030.88 247.51 996.327 248.433C965.209 248.965 945.308 233.456 938.497 211.555C919.971 237.149 894.943 252.99 864.87 266.966C844.964 322.335 825.436 354.405 792.383 355.288C775.856 355.729 761.208 344.477 761.208 327.953C761.208 300.159 793.51 270.377 849.095 256.871C851.724 249.666 853.978 242.095 856.607 234.511C857.396 232.072 858.204 229.587 859.024 227.071C845.696 242.12 830.199 252.871 815.288 253.269C789.441 253.961 781.074 236.808 782.21 210.848C752.122 255.817 705.156 256.211 688.711 256.649C668.804 257.181 644.018 252.586 631.247 239.406C620.73 268.606 607.209 311.784 594.063 356.831L572.281 357.413C586.169 316.325 600.06 273.792 613.851 231.425C596.986 248.248 574.065 259.713 545.232 260.483C514.148 261.016 494.257 245.541 487.424 223.681C470.112 246.549 443.842 263.191 408.889 264.127C383.708 264.8 362.947 250.887 355.892 226.313C338.589 249.647 312.087 266.712 276.678 267.657C237.618 268.327 216.209 243.735 216.209 212.936C216.209 162.233 248.135 117.061 289.448 115.956C317.242 115.214 329.262 135.925 329.262 153.578C329.262 195.642 286.443 223.08 237.243 213.878C239.121 234.107 251.516 249.175 281.185 248.383C310.043 247.613 334.21 229.274 353.369 203.821C354.734 156.583 386.096 112.998 424.664 111.968C456.966 111.104 473.865 142.204 462.975 174.793L442.317 175.347C450.58 148.833 440.064 131.086 422.41 131.559C395.743 132.272 374.337 169.275 374.337 204.582C374.337 231.997 391.611 245.434 413.396 244.852C441.892 244.088 465.808 226.201 484.851 201.245C486.679 152.405 517.919 109.852 558.002 108.782C585.796 108.04 597.816 128.751 597.816 146.404C597.816 188.468 554.997 215.903 505.797 206.701C507.675 226.933 520.07 242.001 549.739 241.209C581.699 240.354 607.904 217.953 627.926 188.199C636.606 161.579 645.232 135.24 653.783 109.602L674.063 109.06L660.168 143.609C667.677 129.89 689.086 105.279 716.505 104.547C739.038 103.946 753.687 123.083 753.687 151.253C753.687 184.305 728.149 224.047 707.115 238.88C729.783 238.983 766.469 218.329 788.217 173.617C792.06 157.932 797.388 141.046 803.272 124.012L780.736 124.616L787.121 106.04L809.657 105.439C816.791 85.3411 824.303 65.6096 830.312 48.1724L851.346 47.6121C843.458 68.1042 836.322 87.4508 830.312 104.888L865.619 103.943L859.233 122.516L823.551 123.471C799.892 193.586 793.131 234.329 817.166 233.688C832.234 233.287 854.119 211.972 873.838 182.274C881.951 158.073 891.025 131.493 900.928 103.001L921.207 102.459C902.806 157.034 887.031 202.15 875.012 238.151L872.758 244.22C900.111 229.547 919.783 212.369 935.921 190.584C937.202 141.165 968.636 97.8111 1009.1 96.7312C1036.89 95.9863 1048.91 116.697 1048.91 134.351C1048.91 173.037 1005.72 202.735 956.892 194.275C958.395 214.516 971.165 229.95 1000.83 229.155ZM780.739 325.177C780.739 333.065 787.5 337.015 795.388 336.805C813.041 336.332 828.062 311.893 842.334 275.082C808.158 286.134 780.739 306.773 780.739 325.177ZM308.228 155.644C308.228 145.127 301.467 134.789 288.697 135.13C263.156 135.812 242.877 164.524 238.37 195.818C271.795 204.691 308.228 186.065 308.228 155.644ZM576.782 148.467C576.782 137.95 570.021 127.615 557.251 127.956C531.71 128.638 511.431 157.35 506.924 188.644C540.349 197.517 576.782 178.891 576.782 148.467ZM732.656 152.192C732.656 135.665 724.768 123.856 710.871 123.853C689.086 123.684 659.793 151.134 638.384 219.308C644.769 230.783 654.534 238.408 674.438 237.875C699.603 237.206 732.656 192.378 732.656 152.192ZM1027.88 136.416C1027.88 125.9 1021.12 115.564 1008.35 115.906C982.806 116.588 962.902 144.911 958.019 176.218C991.444 184.337 1027.88 163.457 1027.88 136.416ZM919.329 75.466C911.817 75.6663 907.31 70.53 907.31 63.7692C907.31 52.5012 916.324 43.2458 925.339 43.0048C932.1 42.8264 937.358 47.5683 937.358 54.7016C937.358 65.2184 928.344 75.225 919.329 75.466ZM115.921 212.61C127.561 241.973 140.707 271.291 154.229 300.601L129.815 301.255C117.42 273.041 106.155 245.171 95.2629 216.92C83.6193 218.357 71.2245 218.689 58.8297 217.518C49.0641 246.323 39.3016 275.129 29.9116 303.922L7 304.535C33.292 228.714 58.4541 152.927 85.1217 77.0967L106.906 76.5146C92.6337 116.707 79.1121 157.256 65.5905 197.43C136.951 203.035 198.922 156.686 198.922 90.9564C198.922 46.6387 163.995 23.1574 124.181 24.2216C94.1361 25.026 62.5857 37.8872 41.1765 51.9785L31.7896 34.2032C55.0737 19.6831 88.8777 6.01127 124.932 5.04723C179.77 3.58239 220.707 36.2909 220.707 89.2474C220.707 148.592 175.263 196.754 115.921 212.61Z" fill="black" stroke="black" stroke-width="9.39" stroke-linecap="round"/>
</svg>
